Site26/img/svg/table_microsoft.svg

<svg width="42" height="10" viewBox="0 0 42 10" fill="none" xmlns="http://www.w3.org/2000/svg">
<g clip-path="url(#clip0_1259_789)">
<path d="M41.9934 4.15563V3.41895H41.0597V2.28678H41.0324L40.1807 2.55043L40.1534 2.57757V3.42282H38.7938V2.94204C38.7938 2.73267 38.8485 2.54656 38.954 2.44187C39.0321 2.31004 39.1923 2.25576 39.3525 2.25576C39.4853 2.25576 39.6181 2.2829 39.751 2.36045H39.8057V1.6005H39.7783C39.6455 1.54621 39.4853 1.52295 39.2704 1.52295C39.0048 1.52295 38.7626 1.6005 38.5516 1.70906C38.3367 1.81375 38.1805 1.97272 38.0437 2.18209C37.9382 2.39146 37.8836 2.63186 37.8836 2.89551V3.42282H37.2429V4.15951H37.8836V7.24196H38.7899V4.15951H40.1495V6.10979C40.1495 6.9279 40.5206 7.32338 41.2941 7.32338C41.427 7.32338 41.5324 7.32338 41.6653 7.29624C41.8254 7.24196 41.9036 7.2187 41.9583 7.19156H41.9856V6.45487L41.9309 6.48201C41.8762 6.50915 41.8254 6.53629 41.7434 6.55956C41.6653 6.5867 41.6106 6.5867 41.5559 6.5867C41.3957 6.5867 41.2629 6.53242 41.1847 6.45487C41.1066 6.35018 41.0519 6.19121 41.0519 5.9547V4.16339H41.9934V4.15563ZM36.2115 5.31494C36.2115 4.91946 36.1333 4.60152 35.9458 4.39215C35.7583 4.18277 35.52 4.07421 35.1996 4.07421C34.8519 4.07421 34.6136 4.1789 34.4261 4.39215C34.2386 4.62866 34.1331 4.9466 34.1331 5.34209C34.1331 5.73757 34.2386 6.05551 34.4261 6.26488C34.6136 6.47426 34.8519 6.58282 35.1996 6.58282C35.52 6.58282 35.7856 6.47813 35.9458 6.26488C36.1333 6.05551 36.2115 5.73757 36.2115 5.31494ZM36.6412 3.86484C36.9889 4.20604 37.1491 4.68295 37.1491 5.2878C37.1491 5.89266 36.9889 6.39283 36.6178 6.76505C36.2701 7.1334 35.7661 7.31951 35.1528 7.31951C34.5667 7.31951 34.0862 7.1334 33.7424 6.79219C33.3947 6.45099 33.2111 5.97409 33.2111 5.36923C33.2111 4.73723 33.3986 4.23706 33.7424 3.86871C34.1136 3.52751 34.6214 3.3414 35.2348 3.3414C35.8403 3.33752 36.3209 3.49649 36.6412 3.86484ZM31.8164 5.00088C31.5234 4.8962 31.3359 4.79151 31.2851 4.71009C31.207 4.6558 31.1523 4.55112 31.1523 4.41929C31.1523 4.3146 31.207 4.23318 31.3124 4.15563C31.3906 4.07809 31.5273 4.05095 31.6836 4.05095C31.8438 4.05095 32.0039 4.07809 32.1641 4.10523C32.3243 4.15951 32.4571 4.23706 32.5626 4.29134L32.5899 4.31848V3.49649C32.4845 3.44221 32.3516 3.41895 32.1641 3.36466C32.0039 3.33752 31.8438 3.33752 31.7109 3.33752C31.2851 3.33752 30.9374 3.44221 30.6717 3.65546C30.3787 3.86484 30.2459 4.15563 30.2459 4.50071C30.2459 4.68682 30.2733 4.84191 30.324 4.97374C30.4022 5.10557 30.4842 5.2374 30.6171 5.31494C30.7225 5.41963 30.9101 5.52432 31.1757 5.63288C31.3632 5.71043 31.5234 5.79185 31.6289 5.84226C31.7344 5.89654 31.7891 5.94694 31.8438 6.02837C31.8711 6.08265 31.8985 6.13305 31.8985 6.23774C31.8985 6.47426 31.7109 6.60608 31.3124 6.60608C31.1523 6.60608 30.9921 6.57894 30.8046 6.52854C30.617 6.45099 30.4334 6.36957 30.2967 6.26488L30.242 6.23774V7.10626H30.2694C30.3748 7.1838 30.5624 7.21094 30.7499 7.26522C30.9374 7.29237 31.121 7.31951 31.2578 7.31951C31.7383 7.31951 32.1094 7.21482 32.3751 7.00157C32.6681 6.76505 32.8009 6.47426 32.8009 6.13305C32.8009 5.8694 32.7228 5.66002 32.586 5.47391C32.4298 5.2878 32.1641 5.13271 31.8164 5.00088ZM28.859 5.31494C28.859 4.91946 28.7809 4.60152 28.5934 4.39215C28.4058 4.18277 28.1675 4.07421 27.8472 4.07421C27.5268 4.07421 27.2612 4.1789 27.0737 4.39215C26.8861 4.62866 26.7806 4.9466 26.7806 5.34209C26.7806 5.73757 26.8861 6.05551 27.0737 6.26488C27.2612 6.47426 27.5268 6.58282 27.8472 6.58282C28.1949 6.58282 28.4332 6.47813 28.6207 6.26488C28.777 6.05551 28.859 5.73757 28.859 5.31494ZM29.3122 3.86484C29.6326 4.20604 29.8201 4.68295 29.8201 5.2878C29.8201 5.89266 29.6326 6.39283 29.2614 6.76505C28.9137 7.1334 28.4097 7.31951 27.7964 7.31951C27.2104 7.31951 26.7299 7.1334 26.3861 6.79219C26.0423 6.45099 25.8548 5.97409 25.8548 5.36923C25.8548 4.73723 26.0423 4.23706 26.3861 3.86871C26.7572 3.52751 27.2651 3.3414 27.9058 3.3414C28.484 3.33752 28.9645 3.49649 29.3122 3.86484ZM25.4211 3.36466C25.2062 3.36466 24.9953 3.41895 24.8351 3.57404C24.6749 3.70587 24.5694 3.86484 24.4874 4.07421H24.4601V3.41507H23.5576V7.23808H24.464V5.2878C24.464 4.9466 24.5421 4.68295 24.7023 4.46969C24.8351 4.26032 25.05 4.15176 25.2883 4.15176C25.3664 4.15176 25.4485 4.1789 25.5539 4.20604C25.6594 4.23318 25.7141 4.26032 25.7688 4.28358L25.7962 4.31072V3.41895C25.7141 3.36467 25.5813 3.36466 25.4211 3.36466ZM22.4364 3.39181C22.2762 3.33752 22.116 3.33752 21.9285 3.33752C21.53 3.33752 21.155 3.41507 20.8346 3.60118C20.5143 3.76015 20.276 4.02381 20.1158 4.33787C19.9556 4.6558 19.8775 5.02415 19.8775 5.41963C19.8775 5.78797 19.9556 6.10591 20.1158 6.39283C20.276 6.68363 20.4869 6.92015 20.7838 7.07911C21.0768 7.23808 21.3972 7.31563 21.7683 7.31563C22.1942 7.31563 22.5692 7.23808 22.8622 7.07911L22.8895 7.05197V6.23774L22.8349 6.26488C22.702 6.36957 22.5692 6.45099 22.409 6.5014C22.2488 6.55568 22.0887 6.57894 21.9558 6.57894C21.6081 6.57894 21.3151 6.47426 21.1042 6.26101C20.9167 6.02449 20.8112 5.73369 20.8112 5.33821C20.8112 4.96987 20.9167 4.65193 21.1315 4.41541C21.3464 4.1789 21.6394 4.07421 21.9832 4.07421C22.2762 4.07421 22.5692 4.1789 22.8349 4.36501L22.8895 4.39215V3.52363H22.8622C22.7567 3.46935 22.6239 3.41895 22.4364 3.39181ZM18.8109 1.80987C18.6508 1.80987 18.5179 1.86415 18.4124 1.96884C18.307 2.04638 18.2523 2.17821 18.2523 2.33718C18.2523 2.46901 18.307 2.60084 18.4124 2.70552C18.5179 2.78307 18.6508 2.83735 18.8109 2.83735C18.9438 2.83735 19.0766 2.78307 19.1821 2.70552C19.2875 2.60084 19.3422 2.46901 19.3422 2.33718C19.3422 2.17821 19.2875 2.07353 19.1821 1.96884C19.0766 1.86415 18.9477 1.80987 18.8109 1.80987ZM18.3343 7.23808H19.2407V3.41895H18.3343V7.23808ZM16.2012 1.91456H17.4553V7.23808H16.5489V3.86484C16.5489 3.62832 16.5489 3.28324 16.5763 2.89163C16.5216 3.0506 16.4981 3.23284 16.4435 3.31426L14.8456 7.24196H14.2322L12.6344 3.36854C12.607 3.26386 12.5563 3.10489 12.5016 2.89551H12.4742C12.5016 3.0002 12.5016 3.10489 12.5016 3.23671C12.5289 3.52751 12.5289 3.76403 12.5289 3.9734V7.24196H11.6499V1.91456H12.9821L14.3143 5.26066C14.4471 5.55146 14.5292 5.78797 14.5526 5.94694H14.5799L14.8183 5.26066L16.2012 1.91456Z" fill="white"/>
<path d="M4.26224 0.150391H0V4.36889H4.26224V0.150391Z" fill="white"/>
<path d="M8.95034 0.150391H4.71545V4.36889H8.95034V0.150391Z" fill="white"/>
<path d="M4.26224 4.7876H0V9.0061H4.26224V4.7876Z" fill="white"/>
<path d="M8.95034 4.7876H4.71545V9.0061H8.95034V4.7876Z" fill="white"/>
</g>
<defs>
<clipPath id="clip0_1259_789">
<rect width="41.9934" height="8.85575" fill="white" transform="translate(0 0.150391)"/>
</clipPath>
</defs>
</svg>

<svg width="42" height="10" fill="none" xmlns="http://www.w3.org/2000/svg">
  <g clip-path="url(#a)" fill="#fff">
    <path d="M41.9934 4.1556V3.419h-.9337V2.2868h-.0273l-.8517.2636-.0273.0272v.8452h-1.3596V2.942c0-.2093.0547-.3954.1602-.5001.0781-.1319.2383-.1861.3985-.1861.1328 0 .2656.0271.3985.1047h.0547v-.76h-.0274c-.1328-.0543-.293-.0776-.5079-.0776-.2656 0-.5078.0776-.7188.1862-.2149.1046-.3711.2636-.5079.473-.1055.2094-.1601.4498-.1601.7134v.5273h-.6407v.7367h.6407V7.242h.9063V4.1595h1.3596v1.9503c0 .8181.3711 1.2136 1.1446 1.2136.1329 0 .2383 0 .3712-.0272.1601-.0542.2383-.0775.293-.1046h.0273v-.7367l-.0547.0271c-.0547.0271-.1055.0543-.1875.0776-.0781.0271-.1328.0271-.1875.0271-.1602 0-.293-.0543-.3712-.1318-.0781-.1047-.1328-.2637-.1328-.5002V4.1634h.9415v-.0078ZM36.2115 5.315c0-.3954-.0782-.7134-.2657-.9227-.1875-.2094-.4258-.318-.7462-.318-.3477 0-.586.1047-.7735.318-.1875.2365-.293.5544-.293.9499 0 .3955.1055.7134.293.9228.1875.2094.4258.318.7735.318.3204 0 .586-.1048.7462-.318.1875-.2094.2657-.5273.2657-.95Zm.4297-1.45c.3477.3411.5079.818.5079 1.4229 0 .6049-.1602 1.105-.5313 1.4772-.3477.3684-.8517.5545-1.465.5545-.5861 0-1.0666-.1861-1.4104-.5273-.3477-.3412-.5313-.8181-.5313-1.423 0-.632.1875-1.1321.5313-1.5005.3712-.3412.879-.5273 1.4924-.5273.6055-.0039 1.0861.155 1.4064.5234Zm-4.8248 1.136c-.293-.1047-.4805-.2094-.5313-.2908-.0781-.0543-.1328-.159-.1328-.2908 0-.1047.0547-.1861.1601-.2637.0782-.0775.2149-.1046.3712-.1046.1602 0 .3203.027.4805.0542.1602.0543.293.1319.3985.1861l.0273.0272v-.822c-.1054-.0543-.2383-.0776-.4258-.1318-.1602-.0272-.3203-.0272-.4532-.0272-.4258 0-.7735.1047-1.0392.318-.293.2093-.4258.5001-.4258.8452 0 .1861.0274.3412.0781.473.0782.1319.1602.2637.2931.3412.1054.1047.293.2094.5586.318.1875.0775.3477.159.4532.2094.1055.0542.1602.1046.2149.186.0273.0544.0547.1048.0547.2094 0 .2366-.1876.3684-.5861.3684-.1601 0-.3203-.0272-.5078-.0776-.1876-.0775-.3712-.159-.5079-.2636l-.0547-.0272v.8686h.0274c.1054.0775.293.1046.4805.159.1875.027.3711.0542.5079.0542.4805 0 .8516-.1047 1.1173-.318.293-.2365.4258-.5272.4258-.8685 0-.2636-.0781-.473-.2149-.659-.1562-.1862-.4219-.3413-.7696-.4731Zm-2.9574.314c0-.3954-.0781-.7134-.2656-.9227-.1876-.2094-.4259-.318-.7462-.318-.3204 0-.586.1047-.7735.318-.1876.2365-.2931.5544-.2931.9499 0 .3955.1055.7134.2931.9228.1875.2094.4531.318.7735.318.3477 0 .586-.1048.7735-.318.1563-.2094.2383-.5273.2383-.95Zm.4532-1.45c.3204.3411.5079.818.5079 1.4229 0 .6049-.1875 1.105-.5587 1.4772-.3477.3684-.8517.5545-1.465.5545-.586 0-1.0665-.1861-1.4103-.5273-.3438-.3412-.5313-.8181-.5313-1.423 0-.632.1875-1.1321.5313-1.5005.3711-.3412.879-.5273 1.5197-.5273.5782-.0039 1.0587.155 1.4064.5234Zm-3.8911-.5002c-.2149 0-.4258.0543-.586.2093-.1602.1319-.2657.2908-.3477.5002h-.0273v-.6591h-.9025v3.823h.9064V5.2878c0-.3412.0781-.6048.2383-.8181.1328-.2094.3477-.318.586-.318.0781 0 .1602.0272.2656.0543.1055.0272.1602.0543.2149.0776l.0274.0271V3.419c-.0821-.0543-.2149-.0543-.3751-.0543Zm-2.9847.0271c-.1602-.0543-.3204-.0543-.5079-.0543-.3985 0-.7735.0776-1.0939.2637-.3203.159-.5586.4226-.7188.7367-.1602.3179-.2383.6862-.2383 1.0817 0 .3684.0781.6863.2383.9732.1602.2908.3711.5273.668.6863.293.159.6134.2365.9845.2365.4259 0 .8009-.0775 1.0939-.2365l.0273-.0271v-.8143l-.0546.0272c-.1329.1047-.2657.186-.4259.2365-.1602.0543-.3203.0775-.4532.0775-.3477 0-.6407-.1046-.8516-.3179-.1875-.2365-.293-.5273-.293-.9228 0-.3683.1055-.6863.3203-.9228.2149-.2365.5079-.3412.8517-.3412.293 0 .586.1047.8517.2908l.0546.0271v-.8685h-.0273c-.1055-.0543-.2383-.1046-.4258-.1318Zm-3.6255-1.582c-.1601 0-.293.0543-.3985.159-.1054.0776-.1601.2094-.1601.3684 0 .1318.0547.2636.1601.3683a.6625.6625 0 0 0 .3985.1319c.1329 0 .2657-.0543.3712-.1319.1054-.1047.1601-.2365.1601-.3683 0-.159-.0547-.2637-.1601-.3684-.1055-.1047-.2344-.159-.3712-.159Zm-.4766 5.4283h.9064V3.4189h-.9064v3.8192Zm-2.1331-5.3235h1.2541V7.238h-.9064V3.8648c0-.2365 0-.5816.0274-.9732-.0547.159-.0782.3412-.1328.4227L14.8456 7.242h-.6134l-1.5978-3.8735c-.0274-.1046-.0781-.2636-.1328-.473h-.0274c.0274.1047.0274.2094.0274.3412.0273.2908.0273.5273.0273.7367V7.242h-.879V1.9146h1.3322l1.3322 3.346c.1328.2909.2149.5274.2383.6863h.0273l.2384-.6862 1.3829-3.3461ZM4.2622.1504H0v4.2185h4.2622V.1504ZM8.9503.1504H4.7154v4.2185h4.235V.1504ZM4.2622 4.7876H0v4.2185h4.2622V4.7876ZM8.9503 4.7876H4.7154v4.2185h4.235V4.7876Z"/>
  </g>
  <defs>
    <clipPath id="a">
      <path fill="#fff" transform="translate(0 .1504)" d="M0 0h41.9934v8.8558H0z"/>
    </clipPath>
  </defs>
</svg>
